X: 8427
T: Crabbit Shona
R: jig
M: 6/8
K: Dmajor
A|:"D" AdA "Bm" FAA|"Em" GAE "A7" AEA|"D" AdA "Bm" FAA|"G" GBB "D" BAF|
"D" AdA "Bm" FAA|"Em" GAE "A7" AEA|"D" AdA "G" BAG|"D" FAE D2 A:|
|:"D" dAA fAA|"D" AaA fed|"A"cAA eAA|"A7" AgA ecA|
"D" dAA fAA|"D"AaA fed|"A" cAA afe|"D" fdd d2 A:|
|:"D" AdA FAA|"A" EAE AEA|"D" AdA FAA|"G" GAG "A7" AGA|
"D" AdA FAA|"A7" EAE AEA|"D" AdA "G" BAG|"D" FdE D2 A:|
|:"D" dAA fAA|"D" AaA fed|"A"cAA eAA|"A7" AgA ecA|
"D" dAA fAA|"D"AaA fed|"A7" cAA afe|"D" fdd d3:|

